X:1
T:The Hungry Rock
M:6/8
L:1/8
R:jig
K:Edor
z EB GEB|EFF dAf|z EB GEB|EFD EED|
z EB GEB|EFF dAf|z gf edB|ABd EED :|
z AF AB/c/d|efe dAB|z AF AB/c/d|efg fed|
z AF AB/c/d|efe dAB|z gf edB|AB/c/d ede/f/ :|
z EF GFE|EFF GFE|z EF GFE|BGE cEd|
z EF GFE|EFF GFE|z BG EcA|dAg gfe :|
